X:1855
T:French schottisch #4
L:1/8
M:2/4
O:France
R:Schottische
Z:Richard Robinson 
%%TUNEURL: http://www.leeds.ac.uk/music/Info/RRTuneBk/gettune/0000070c.html
%%ID:0000070c
K:G
GF GA|G2 D2|AG AB|A2 D2|BA Bc|B2 AG\
|1 FG Ac|B2A2 :|2 FG AF|G4::
GA Bc|d3 D|EF GA|D2 GF|EF GA|BG AB\
|1 cB AG B2 A2 :|2 cB Ac|G4 :|
